svgs/brands/npm.svg

<svg xmlns="http://www.w3.org/2000/svg" viewBox="0 0 576 512"><!--! Font Awesome Pro 7.1.0 by @fontawesome - https://fontawesome.com License - https://fontawesome.com/license (Commercial License) Copyright 2025 Fonticons, Inc. --><path fill="currentColor" d="M288 288l-32 0 0-64 32 0 0 64zM576 160l0 192-288 0 0 32-128 0 0-32-160 0 0-192 576 0zM160 192l-128 0 0 128 64 0 0-96 32 0 0 96 32 0 0-128zm160 0l-128 0 0 160 64 0 0-32 64 0 0-128zm224 0l-192 0 0 128 64 0 0-96 32 0 0 96 32 0 0-96 32 0 0 96 32 0 0-128z"/></svg>

<svg xmlns="http://www.w3.org/2000/svg" viewBox="0 0 576 512"><!--! Font Awesome Pro 6.7.2 by @fontawesome - https://fontawesome.com License - https://fontawesome.com/license (Commercial License) Copyright 2024 Fonticons, Inc. --><path d="M288 288h-32v-64h32v64zm288-128v192H288v32H160v-32H0V160h576zm-416 32H32v128h64v-96h32v96h32V192zm160 0H192v160h64v-32h64V192zm224 0H352v128h64v-96h32v96h32v-96h32v96h32V192z"/></svg>
